X: 160
T: Da pacem Domine
N: Derived from Rue2003-Da_Pacem_Domine.krn
C: Pierre de la Rue
%%abc-version 2.0
%%abcx-abcm2ps-target-version 5.9.1 (29 Sep 2008)
%%abc-creator hum2abc beta
%%abcx-conversion-date 2019/02/17 08:01:16
%%abc-edited-by Jesse Rodin
%%abc-edited-by Jesse Rodin; Chris Gage 01-02-2013
%%abcx-initial-encoding-date 2013/05/17/
%%humdrum-veritas 411894124
%%humdrum-veritas-data 1085726525
%%linebreak <none>
%%barnumbers 0
L: 1/4
M: 2/1
Q: 1/2=120
%%staves [1 2 3 4]
V: 1 clef=treble
V: 2 clef=treble-8
V: 3 clef=treble-8
V: 4 clef=bass
K: C
[V:1] z4G4 | 
[V:2] d4c4 | 
[V:3] z4G4 | 
[V:4] D,4E,4 | 
[V:1] F4G4 | 
[V:2] d4z4 | 
[V:3] A4G4 | 
[V:4] D,4G,4 | 
[V:1] z4B4 | 
[V:2] f4g4 | 
[V:3] c4d4 | 
[V:4] A,4G,4 | 
[V:1] c4B4 | 
[V:2] f4z4 | 
[V:3] c4d4 | 
[V:4] A,4G,2B,2 | 
[V:1] z4A4 | 
[V:2] e4f4 | 
[V:3] c2e2d4 | 
[V:4] A,4D,4 | 
[V:1] B4c4 | 
[V:2] g4f2e2- | 
[V:3] G4z2c2 | 
[V:4] z2G,2A,4 | 
[V:1] B2A4G2- | 
[V:2] e2d4^c2 | 
[V:3] d4G4 | 
[V:4] D,4E,4 | 
[V:1] G2^F2G4 | 
[V:2] d4z4 | 
[V:3] A4G4 | 
[V:4] D,4z2G,2 | 
[V:1] z4B2B2 | 
[V:2] f2f2e2d2- | 
[V:3] z2c2B2B2 | 
[V:4] F,2F,2G,4 | 
[V:1] A2G4c2 | 
[V:2] d2g2e2f2- | 
[V:3] c4z2F2 | 
[V:4] z2C,2G,2A,2 | 
[V:1] A2B4B2 | 
[V:2] f2f2g2_b2- | 
[V:3] c2d2B2G2 | 
[V:4] F,2D,2G,4 | 
[V:1] c2e4d2- | 
[V:2] b2a4g2 | 
[V:3] c4d4 | 
[V:4] A,4B,4 | 
[V:1] d2^c2d4 | 
[V:2] a4z4 | 
[V:3] e4d4 | 
[V:4] A,4z4 | 
[V:1] z4d2d2 | 
[V:2] a2a2g4- | 
[V:3] z4d4 | 
[V:4] A,4B,4 | 
[V:1] c6d2- | 
[V:2] g2a4f2- | 
[V:3] e4f4 | 
[V:4] C4F,4 | 
[V:1] d2_B4A2 | 
[V:2] f2e2f4 | 
[V:3] _B4c4 | 
[V:4] G,4F,4 | 
[V:1] _B4z4 | 
[V:2] z4f2f2 | 
[V:3] _B4z4 | 
[V:4] z4F,2F,2 | 
[V:1] _B2B2G2c2- | 
[V:2] d2g3fe2- | 
[V:3] _B2_B2c3_B | 
[V:4] G,3F,E,D,C,2- | 
[V:1] c_BA4d2- | 
[V:2] e2a3gfe | 
[V:3] AGF4_B2- | 
[V:4] C,2F,3E,D,2 | 
[V:1] dc_BAG2c2- | 
[V:2] d2g3fe2- | 
[V:3] BAG2c3_B | 
[V:4] G,3F,E,D,C,2 | 
[V:1] c_BA3GG2- | 
[V:2] edd4^c2 | 
[V:3] AGF2G4 | 
[V:4] D,4E,4 | 
[V:1] G2F2G2_B2 | 
[V:2] d2f2e2d2- | 
[V:3] A4G4 | 
[V:4] D,4z4 | 
[V:1] A2G4E2 | 
[V:2] d2B2c2e2- | 
[V:3] z4G2A2- | 
[V:4] D,2E,4C,2 | 
[V:1] F2A4G2- | 
[V:2] e2d4^c2 | 
[V:3] A2F2G4 | 
[V:4] D,4E,4 | 
[V:1] G2^F2G4 |]  
[V:2] d8 |]  
[V:3] A4G4 |]  
[V:4] D,4G,4 |]  



